X:1
T:Baltimore Fire
M:4/4
L:1/8
K:E
 GA| BB GF E2 G3/2 E/2| F2 C2 z2 EC| B,B, EE EE G3/2 G/2| G3/2- F/2 F2 z2 B2|\
 B2 GF EE FG| F2 C2 z2 EC| B,B, DE FA GF| E6 z2| G4 G3 F| E2 G2 B3 G|\
 E3 EF-E C2| B,2 E2 G3 z| E3 EF-E C2| B,2 E2 G2G-B| B F- F4 z2| G4 G3 F|\
 E2 G2 B3 G-| E3 EF-E C2| B,2 E2 G3 z| E3 EF-E C2| B,2 E2 G2G-B| B3/2 F/2 G3/2 E/2 FF G2|\
 F2 E- E4|
